mj/qys/gl-mahjongtile-svg/d-6.svg

<svg xmlns="http://www.w3.org/2000/svg" viewBox="30 -115 580 830"><g><path d="M550 685h-460q-13 0 -21.5 -8.5t-8.5 -21.5v-710q0 -13 8.5 -21.5t21.5 -8.5h460q13 0 21.5 8.5t8.5 21.5v710q0 13 -8.5 21.5t-21.5 8.5zM610 655v-710q0 -25 -17.5 -42.5t-42.5 -17.5h-460q-25 0 -42.5 17.5t-17.5 42.5v710q0 25 17.5 42.5t42.5 17.5h460 q25 0 42.5 -17.5t17.5 -42.5zM269 140q37 -14 51 -51q14 37 51 51q-37 14 -51 51q-14 -37 -51 -51zM202 210q10 2 13 10q0 6 2.5 11t3.5 11l-6 8h-9q-11 -13 -11 -30v-4zM248 244l7 1l6 8l-3 8q-8 4 -18 4t-18 -4l-3 -8l6 -8l7 -1q2 1 8 1t8 -1zM259 242q1 -6 3.5 -11 t2.5 -11l4 -7l9 -3l7 6v4q0 17 -11 30h-9zM267 209q-12 -5 -25 -18v-10l8 -5q17 4 29 21l-3 9zM233 196q-8 3 -14 10l-6 3l-9 -3l-3 -9q12 -17 29 -21l8 5v10zM185 220q0 22 16.5 38.5t38.5 16.5t38.5 -16.5t16.5 -38.5t-16.5 -38.5t-38.5 -16.5t-38.5 16.5t-16.5 38.5z M170 220q0 -29 20.5 -49.5t49.5 -20.5t49.5 20.5t20.5 49.5t-20.5 49.5t-49.5 20.5t-49.5 -20.5t-20.5 -49.5zM225 220q0 -6 4.5 -10.5t10.5 -4.5t10.5 4.5t4.5 10.5t-4.5 10.5t-10.5 4.5t-10.5 -4.5t-4.5 -10.5zM235 220q0 5 5 5t5 -5t-5 -5t-5 5zM362 210q10 2 13 10 q0 6 2.5 11t3.5 11l-6 8h-9q-11 -13 -11 -30v-4zM408 244l7 1l6 8l-3 8q-8 4 -18 4t-18 -4l-3 -8l6 -8l7 -1q2 1 8 1t8 -1zM419 242q1 -6 3.5 -11t2.5 -11l4 -7l9 -3l7 6v4q0 17 -11 30h-9zM427 209q-12 -5 -25 -18v-10l8 -5q17 4 29 21l-3 9zM393 196q-8 3 -14 10l-6 3 l-9 -3l-3 -9q12 -17 29 -21l8 5v10zM345 220q0 22 16.5 38.5t38.5 16.5t38.5 -16.5t16.5 -38.5t-16.5 -38.5t-38.5 -16.5t-38.5 16.5t-16.5 38.5zM330 220q0 -29 20.5 -49.5t49.5 -20.5t49.5 20.5t20.5 49.5t-20.5 49.5t-49.5 20.5t-49.5 -20.5t-20.5 -49.5zM385 220 q0 -6 4.5 -10.5t10.5 -4.5t10.5 4.5t4.5 10.5t-4.5 10.5t-10.5 4.5t-10.5 -4.5t-4.5 -10.5zM395 220q0 5 5 5t5 -5t-5 -5t-5 5zM202 50q10 2 13 10q0 6 2.5 11t3.5 11l-6 8h-9q-11 -13 -11 -30v-4zM248 84l7 1l6 8l-3 8q-8 4 -18 4t-18 -4l-3 -8l6 -8l7 -1q2 1 8 1t8 -1z M259 82q1 -6 3.5 -11t2.5 -11l4 -7l9 -3l7 6v4q0 17 -11 30h-9zM267 49q-12 -5 -25 -18v-10l8 -5q17 4 29 21l-3 9zM233 36q-8 3 -14 10l-6 3l-9 -3l-3 -9q12 -17 29 -21l8 5v10zM185 60q0 22 16.5 38.5t38.5 16.5t38.5 -16.5t16.5 -38.5t-16.5 -38.5t-38.5 -16.5 t-38.5 16.5t-16.5 38.5zM170 60q0 -29 20.5 -49.5t49.5 -20.5t49.5 20.5t20.5 49.5t-20.5 49.5t-49.5 20.5t-49.5 -20.5t-20.5 -49.5zM225 60q0 -6 4.5 -10.5t10.5 -4.5t10.5 4.5t4.5 10.5t-4.5 10.5t-10.5 4.5t-10.5 -4.5t-4.5 -10.5zM235 60q0 5 5 5t5 -5t-5 -5t-5 5z M362 50q10 2 13 10q0 6 2.5 11t3.5 11l-6 8h-9q-11 -13 -11 -30v-4zM408 84l7 1l6 8l-3 8q-8 4 -18 4t-18 -4l-3 -8l6 -8l7 -1q2 1 8 1t8 -1zM419 82q1 -6 3.5 -11t2.5 -11l4 -7l9 -3l7 6v4q0 17 -11 30h-9zM427 49q-12 -5 -25 -18v-10l8 -5q17 4 29 21l-3 9zM393 36 q-8 3 -14 10l-6 3l-9 -3l-3 -9q12 -17 29 -21l8 5v10zM345 60q0 22 16.5 38.5t38.5 16.5t38.5 -16.5t16.5 -38.5t-16.5 -38.5t-38.5 -16.5t-38.5 16.5t-16.5 38.5zM330 60q0 -29 20.5 -49.5t49.5 -20.5t49.5 20.5t20.5 49.5t-20.5 49.5t-49.5 20.5t-49.5 -20.5t-20.5 -49.5z M385 60q0 -6 4.5 -10.5t10.5 -4.5t10.5 4.5t4.5 10.5t-4.5 10.5t-10.5 4.5t-10.5 -4.5t-4.5 -10.5zM395 60q0 5 5 5t5 -5t-5 -5t-5 5zM315 460q0 5 5 5t5 -5t-5 -5t-5 5zM305 460q0 -6 4.5 -10.5t10.5 -4.5t10.5 4.5t4.5 10.5t-4.5 10.5t-10.5 4.5t-10.5 -4.5t-4.5 -10.5z M250 460q0 -29 20.5 -49.5t49.5 -20.5t49.5 20.5t20.5 49.5t-20.5 49.5t-49.5 20.5t-49.5 -20.5t-20.5 -49.5zM265 460q0 22 16.5 38.5t38.5 16.5t38.5 -16.5t16.5 -38.5t-16.5 -38.5t-38.5 -16.5t-38.5 16.5t-16.5 38.5zM313 436q-8 3 -14 10l-6 3l-9 -3l-3 -9 q12 -17 29 -21l8 5v10zM347 449q-12 -5 -25 -18v-10l8 -5q17 4 29 21l-3 9zM339 482q1 -6 3.5 -11t2.5 -11l4 -7l9 -3l7 6v4q0 17 -11 30h-9zM328 484l7 1l6 8l-3 8q-8 4 -18 4t-18 -4l-3 -8l6 -8l7 -1q2 1 8 1t8 -1zM282 450q10 2 13 10q0 6 2.5 11t3.5 11l-6 8h-9 q-11 -13 -11 -30v-4zM180 550q0 5 5 5t5 -5t-5 -5t-5 5zM170 550q0 -6 4.5 -10.5t10.5 -4.5t10.5 4.5t4.5 10.5t-4.5 10.5t-10.5 4.5t-10.5 -4.5t-4.5 -10.5zM115 550q0 -29 20.5 -49.5t49.5 -20.5t49.5 20.5t20.5 49.5t-20.5 49.5t-49.5 20.5t-49.5 -20.5t-20.5 -49.5z M130 550q0 22 16 38.5t39 16.5t39 -16.5t16 -38.5t-16 -38.5t-39 -16.5t-39 16.5t-16 38.5zM178 526q-8 3 -14 10l-6 3l-9 -3l-3 -9q12 -17 29 -21l8 5v10zM212 539q-12 -5 -25 -18v-10l8 -5q17 4 29 21l-3 9zM204 572q1 -6 3.5 -11t2.5 -11l4 -7l9 -3l7 6v4q0 17 -11 30h-9 zM193 574l7 1l6 8l-3 8q-8 4 -18 4t-18 -4l-3 -8l6 -8l7 -1q2 1 8 1t8 -1zM147 540q10 2 13 10q0 6 2.5 11t3.5 11l-6 8h-9q-11 -13 -11 -30v-4zM450 370q0 5 5 5t5 -5t-5 -5t-5 5zM440 370q0 -6 4.5 -10.5t10.5 -4.5t10.5 4.5t4.5 10.5t-4.5 10.5t-10.5 4.5t-10.5 -4.5 t-4.5 -10.5zM385 370q0 -29 20.5 -49.5t49.5 -20.5t49.5 20.5t20.5 49.5t-20.5 49.5t-49.5 20.5t-49.5 -20.5t-20.5 -49.5zM400 370q0 22 16 38.5t39 16.5t39 -16.5t16 -38.5t-16 -38.5t-39 -16.5t-39 16.5t-16 38.5zM448 346q-8 3 -14 10l-6 3l-9 -3l-3 -9q12 -17 29 -21 l8 5v10zM482 359q-12 -5 -25 -18v-10l8 -5q17 4 29 21l-3 9zM474 392q1 -6 3.5 -11t2.5 -11l4 -7l9 -3l7 6v4q0 17 -11 30h-9zM463 394l7 1l6 8l-3 8q-8 4 -18 4t-18 -4l-3 -8l6 -8l7 -1q2 1 8 1t8 -1zM417 360q10 2 13 10q0 6 2.5 11t3.5 11l-6 8h-9q-11 -13 -11 -30v-4z M155 220q0 35 25 60t60 25q27 0 49 -15.5t31 -40.5q9 25 31 40.5t49 15.5q-30 27 -30 65q0 12 3 24q-22 -19 -53 -19q-35 0 -60 25t-25 60q0 12 3 24q-22 -19 -53 -19q-35 0 -60 25t-25 60t25 60t60 25t60 -25t25 -60q0 -12 -3 -24q22 19 53 19q35 0 60 -25t25 -60 q0 -12 -3 -24q22 19 53 19q35 0 60 -25t25 -60t-25 -60t-60 -25q30 -27 30 -65q0 -27 -15.5 -49t-40.5 -31q25 -9 40.5 -31t15.5 -49q0 -35 -25 -60t-60 -25q-27 0 -49 15.5t-31 40.5q-9 -25 -31 -40.5t-49 -15.5q-35 0 -60 25t-25 60q0 27 15.5 49t40.5 31q-25 9 -40.5 31 t-15.5 49z" /></g></svg>

<?xml version="1.0" encoding="UTF-8" standalone="no"?>
<svg
   xmlns:dc="http://purl.org/dc/elements/1.1/"
   xmlns:cc="http://creativecommons.org/ns#"
   xmlns:rdf="http://www.w3.org/1999/02/22-rdf-syntax-ns#"
   xmlns:svg="http://www.w3.org/2000/svg"
   xmlns="http://www.w3.org/2000/svg"
   xmlns:sodipodi="http://sodipodi.sourceforge.net/DTD/sodipodi-0.dtd"
   xmlns:inkscape="http://www.inkscape.org/namespaces/inkscape"
   inkscape:version="1.0rc1 (09960d6f05, 2020-04-09)"
   sodipodi:docname="d-6.svg"
   id="svg6"
   version="1.1"
   viewBox="30 -115 580 830">
  <metadata
     id="metadata12">
    <rdf:RDF>
      <cc:Work
         rdf:about="">
        <dc:format>image/svg+xml</dc:format>
        <dc:type
           rdf:resource="http://purl.org/dc/dcmitype/StillImage" />
      </cc:Work>
    </rdf:RDF>
  </metadata>
  <defs
     id="defs10" />
  <sodipodi:namedview
     inkscape:current-layer="svg6"
     inkscape:window-maximized="1"
     inkscape:window-y="-6"
     inkscape:window-x="-6"
     inkscape:cy="467.14687"
     inkscape:cx="172.66921"
     inkscape:zoom="1.1951807"
     showgrid="false"
     id="namedview8"
     inkscape:window-height="698"
     inkscape:window-width="1080"
     inkscape:pageshadow="2"
     inkscape:pageopacity="0"
     guidetolerance="10"
     gridtolerance="10"
     objecttolerance="10"
     borderopacity="1"
     bordercolor="#666666"
     pagecolor="#ffffff" />
  <path
     d="m 315,460 q 0,5 5,5 5,0 5,-5 0,-5 -5,-5 -5,0 -5,5 z m -10,0 q 0,-6 4.5,-10.5 4.5,-4.5 10.5,-4.5 6,0 10.5,4.5 4.5,4.5 4.5,10.5 0,6 -4.5,10.5 -4.5,4.5 -10.5,4.5 -6,0 -10.5,-4.5 Q 305,466 305,460 Z m -55,0 q 0,-29 20.5,-49.5 Q 291,390 320,390 q 29,0 49.5,20.5 Q 390,431 390,460 390,489 369.5,509.5 349,530 320,530 291,530 270.5,509.5 250,489 250,460 Z m 15,0 q 0,22 16.5,38.5 Q 298,515 320,515 342,515 358.5,498.5 375,482 375,460 375,438 358.5,421.5 342,405 320,405 298,405 281.5,421.5 265,438 265,460 Z m 48,-24 q -8,3 -14,10 l -6,3 -9,-3 -3,-9 q 12,-17 29,-21 l 8,5 v 10 z m 34,13 q -12,-5 -25,-18 v -10 l 8,-5 q 17,4 29,21 l -3,9 z m -8,33 q 1,-6 3.5,-11 2.5,-5 2.5,-11 l 4,-7 9,-3 7,6 v 4 q 0,17 -11,30 h -9 z m -11,2 7,1 6,8 -3,8 q -8,4 -18,4 -10,0 -18,-4 l -3,-8 6,-8 7,-1 q 2,1 8,1 6,0 8,-1 z m -46,-34 q 10,2 13,10 0,6 2.5,11 2.5,5 3.5,11 l -6,8 h -9 q -11,-13 -11,-30 v -4 z M 180,550 q 0,5 5,5 5,0 5,-5 0,-5 -5,-5 -5,0 -5,5 z m -10,0 q 0,-6 4.5,-10.5 4.5,-4.5 10.5,-4.5 6,0 10.5,4.5 4.5,4.5 4.5,10.5 0,6 -4.5,10.5 -4.5,4.5 -10.5,4.5 -6,0 -10.5,-4.5 Q 170,556 170,550 Z m -55,0 q 0,-29 20.5,-49.5 Q 156,480 185,480 q 29,0 49.5,20.5 Q 255,521 255,550 255,579 234.5,599.5 214,620 185,620 156,620 135.5,599.5 115,579 115,550 Z m 15,0 q 0,22 16,38.5 16,16.5 39,16.5 23,0 39,-16.5 Q 240,572 240,550 240,528 224,511.5 208,495 185,495 162,495 146,511.5 130,528 130,550 Z m 48,-24 q -8,3 -14,10 l -6,3 -9,-3 -3,-9 q 12,-17 29,-21 l 8,5 v 10 z m 34,13 q -12,-5 -25,-18 v -10 l 8,-5 q 17,4 29,21 l -3,9 z m -8,33 q 1,-6 3.5,-11 2.5,-5 2.5,-11 l 4,-7 9,-3 7,6 v 4 q 0,17 -11,30 h -9 z m -11,2 7,1 6,8 -3,8 q -8,4 -18,4 -10,0 -18,-4 l -3,-8 6,-8 7,-1 q 2,1 8,1 6,0 8,-1 z m -46,-34 q 10,2 13,10 0,6 2.5,11 2.5,5 3.5,11 l -6,8 h -9 q -11,-13 -11,-30 v -4 z M 450,370 q 0,5 5,5 5,0 5,-5 0,-5 -5,-5 -5,0 -5,5 z m -10,0 q 0,-6 4.5,-10.5 4.5,-4.5 10.5,-4.5 6,0 10.5,4.5 4.5,4.5 4.5,10.5 0,6 -4.5,10.5 -4.5,4.5 -10.5,4.5 -6,0 -10.5,-4.5 Q 440,376 440,370 Z m -55,0 q 0,-29 20.5,-49.5 Q 426,300 455,300 q 29,0 49.5,20.5 Q 525,341 525,370 525,399 504.5,419.5 484,440 455,440 426,440 405.5,419.5 385,399 385,370 Z m 15,0 q 0,22 16,38.5 16,16.5 39,16.5 23,0 39,-16.5 Q 510,392 510,370 510,348 494,331.5 478,315 455,315 432,315 416,331.5 400,348 400,370 Z m 48,-24 q -8,3 -14,10 l -6,3 -9,-3 -3,-9 q 12,-17 29,-21 l 8,5 v 10 z m 34,13 q -12,-5 -25,-18 v -10 l 8,-5 q 17,4 29,21 l -3,9 z m -8,33 q 1,-6 3.5,-11 2.5,-5 2.5,-11 l 4,-7 9,-3 7,6 v 4 q 0,17 -11,30 h -9 z m -11,2 7,1 6,8 -3,8 q -8,4 -18,4 -10,0 -18,-4 l -3,-8 6,-8 7,-1 q 2,1 8,1 6,0 8,-1 z m -46,-34 q 10,2 13,10 0,6 2.5,11 2.5,5 3.5,11 l -6,8 h -9 q -11,-13 -11,-30 v -4 z m -17,-55 c -20,18 -30,39.66667 -30,65 0,8 1,16 3,24 -14.66667,-12.66667 -32.33333,-19 -53,-19 -23.33333,0 -43.33333,8.33333 -60,25 -16.66667,16.66667 -25,36.66667 -25,60 0,8 1,16 3,24 -14.66667,-12.66667 -32.33333,-19 -53,-19 -23.33333,0 -43.33333,8.33333 -60,25 -16.66667,16.66667 -25,36.66667 -25,60 0,23.33333 8.33333,43.33333 25,60 16.66667,16.66667 36.66667,25 60,25 23.33333,0 43.33333,-8.33333 60,-25 16.66667,-16.66667 25,-36.66667 25,-60 0,-8 -1,-16 -3,-24 14.66667,12.66667 32.33333,19 53,19 23.33333,0 43.33333,-8.33333 60,-25 16.66667,-16.66667 25,-36.66667 25,-60 0,-8 -1,-16 -3,-24 14.66667,12.66667 32.33333,19 53,19 23.33333,0 43.33333,-8.33333 60,-25 16.66667,-16.66667 25,-36.66667 25,-60 0,-23.33333 -8.33333,-43.33333 -25,-60 -16.66667,-16.66667 -36.66667,-25 -60,-25 z"
     style="stroke:none;stroke-opacity:1;fill:#000099;fill-opacity:1"
     id="path916" />
  <path
     d="m 269,140 q 37,-14 51,-51 14,37 51,51 -37,14 -51,51 -14,-37 -51,-51 z m -67,70 q 10,2 13,10 0,6 2.5,11 2.5,5 3.5,11 l -6,8 h -9 q -11,-13 -11,-30 v -4 z m 46,34 7,1 6,8 -3,8 q -8,4 -18,4 -10,0 -18,-4 l -3,-8 6,-8 7,-1 q 2,1 8,1 6,0 8,-1 z m 11,-2 q 1,-6 3.5,-11 2.5,-5 2.5,-11 l 4,-7 9,-3 7,6 v 4 q 0,17 -11,30 h -9 z m 8,-33 q -12,-5 -25,-18 v -10 l 8,-5 q 17,4 29,21 l -3,9 z m -34,-13 q -8,3 -14,10 l -6,3 -9,-3 -3,-9 q 12,-17 29,-21 l 8,5 v 10 z m -48,24 q 0,22 16.5,38.5 Q 218,275 240,275 262,275 278.5,258.5 295,242 295,220 295,198 278.5,181.5 262,165 240,165 218,165 201.5,181.5 185,198 185,220 Z m -15,0 q 0,-29 20.5,-49.5 Q 211,150 240,150 q 29,0 49.5,20.5 Q 310,191 310,220 310,249 289.5,269.5 269,290 240,290 211,290 190.5,269.5 170,249 170,220 Z m 55,0 q 0,-6 4.5,-10.5 4.5,-4.5 10.5,-4.5 6,0 10.5,4.5 4.5,4.5 4.5,10.5 0,6 -4.5,10.5 -4.5,4.5 -10.5,4.5 -6,0 -10.5,-4.5 Q 225,226 225,220 Z m 10,0 q 0,5 5,5 5,0 5,-5 0,-5 -5,-5 -5,0 -5,5 z m 127,-10 q 10,2 13,10 0,6 2.5,11 2.5,5 3.5,11 l -6,8 h -9 q -11,-13 -11,-30 v -4 z m 46,34 7,1 6,8 -3,8 q -8,4 -18,4 -10,0 -18,-4 l -3,-8 6,-8 7,-1 q 2,1 8,1 6,0 8,-1 z m 11,-2 q 1,-6 3.5,-11 2.5,-5 2.5,-11 l 4,-7 9,-3 7,6 v 4 q 0,17 -11,30 h -9 z m 8,-33 q -12,-5 -25,-18 v -10 l 8,-5 q 17,4 29,21 l -3,9 z m -34,-13 q -8,3 -14,10 l -6,3 -9,-3 -3,-9 q 12,-17 29,-21 l 8,5 v 10 z m -48,24 q 0,22 16.5,38.5 Q 378,275 400,275 422,275 438.5,258.5 455,242 455,220 455,198 438.5,181.5 422,165 400,165 378,165 361.5,181.5 345,198 345,220 Z m -15,0 q 0,-29 20.5,-49.5 Q 371,150 400,150 q 29,0 49.5,20.5 Q 470,191 470,220 470,249 449.5,269.5 429,290 400,290 371,290 350.5,269.5 330,249 330,220 Z m 55,0 q 0,-6 4.5,-10.5 4.5,-4.5 10.5,-4.5 6,0 10.5,4.5 4.5,4.5 4.5,10.5 0,6 -4.5,10.5 -4.5,4.5 -10.5,4.5 -6,0 -10.5,-4.5 Q 385,226 385,220 Z m 10,0 q 0,5 5,5 5,0 5,-5 0,-5 -5,-5 -5,0 -5,5 z M 202,50 q 10,2 13,10 0,6 2.5,11 2.5,5 3.5,11 l -6,8 h -9 Q 195,77 195,60 v -4 z m 46,34 7,1 6,8 -3,8 q -8,4 -18,4 -10,0 -18,-4 l -3,-8 6,-8 7,-1 q 2,1 8,1 6,0 8,-1 z m 11,-2 q 1,-6 3.5,-11 2.5,-5 2.5,-11 l 4,-7 9,-3 7,6 v 4 q 0,17 -11,30 h -9 z m 8,-33 Q 255,44 242,31 V 21 l 8,-5 q 17,4 29,21 l -3,9 z M 233,36 q -8,3 -14,10 l -6,3 -9,-3 -3,-9 q 12,-17 29,-21 l 8,5 v 10 z m -48,24 q 0,22 16.5,38.5 Q 218,115 240,115 262,115 278.5,98.5 295,82 295,60 295,38 278.5,21.5 262,5 240,5 218,5 201.5,21.5 185,38 185,60 Z m -15,0 Q 170,31 190.5,10.5 211,-10 240,-10 269,-10 289.5,10.5 310,31 310,60 310,89 289.5,109.5 269,130 240,130 211,130 190.5,109.5 170,89 170,60 Z m 55,0 q 0,-6 4.5,-10.5 Q 234,45 240,45 q 6,0 10.5,4.5 4.5,4.5 4.5,10.5 0,6 -4.5,10.5 Q 246,75 240,75 234,75 229.5,70.5 225,66 225,60 Z m 10,0 q 0,5 5,5 5,0 5,-5 0,-5 -5,-5 -5,0 -5,5 z M 362,50 q 10,2 13,10 0,6 2.5,11 2.5,5 3.5,11 l -6,8 h -9 Q 355,77 355,60 v -4 z m 46,34 7,1 6,8 -3,8 q -8,4 -18,4 -10,0 -18,-4 l -3,-8 6,-8 7,-1 q 2,1 8,1 6,0 8,-1 z m 11,-2 q 1,-6 3.5,-11 2.5,-5 2.5,-11 l 4,-7 9,-3 7,6 v 4 q 0,17 -11,30 h -9 z m 8,-33 Q 415,44 402,31 V 21 l 8,-5 q 17,4 29,21 l -3,9 z M 393,36 q -8,3 -14,10 l -6,3 -9,-3 -3,-9 q 12,-17 29,-21 l 8,5 v 10 z m -48,24 q 0,22 16.5,38.5 Q 378,115 400,115 422,115 438.5,98.5 455,82 455,60 455,38 438.5,21.5 422,5 400,5 378,5 361.5,21.5 345,38 345,60 Z m -15,0 Q 330,31 350.5,10.5 371,-10 400,-10 429,-10 449.5,10.5 470,31 470,60 470,89 449.5,109.5 429,130 400,130 371,130 350.5,109.5 330,89 330,60 Z m 55,0 q 0,-6 4.5,-10.5 Q 394,45 400,45 q 6,0 10.5,4.5 4.5,4.5 4.5,10.5 0,6 -4.5,10.5 Q 406,75 400,75 394,75 389.5,70.5 385,66 385,60 Z m 10,0 q 0,5 5,5 5,0 5,-5 0,-5 -5,-5 -5,0 -5,5 z m 60,225 c 20,-18 30,-39.66667 30,-65 0,-18 -5.16667,-34.33333 -15.5,-49 -10.33333,-14.66667 -23.83333,-25 -40.5,-31 16.66667,-6 30.16667,-16.33333 40.5,-31 C 479.83333,94.333333 485,78 485,60 485,36.666667 476.66667,16.666667 460,0 443.33333,-16.666667 423.33333,-25 400,-25 382,-25 365.66667,-19.833333 351,-9.5 336.33333,0.83333333 326,14.333333 320,31 314,14.333333 303.66667,0.83333333 289,-9.5 274.33333,-19.833333 258,-25 240,-25 c -23.33333,0 -43.33333,8.333333 -60,25 -16.66667,16.666667 -25,36.666667 -25,60 0,18 5.16667,34.333333 15.5,49 10.33333,14.66667 23.83333,25 40.5,31 -16.66667,6 -30.16667,16.33333 -40.5,31 -10.33333,14.66667 -15.5,31 -15.5,49 0,23.33333 8.33333,43.33333 25,60 16.66667,16.66667 36.66667,25 60,25 18,0 34.33333,-5.16667 49,-15.5 14.66667,-10.33333 25,-23.83333 31,-40.5 6,16.66667 16.33333,30.16667 31,40.5 14.66667,10.33333 31,15.5 49,15.5 z"
     style="stroke:none;stroke-opacity:1;fill:#cc0000;fill-opacity:1"
     id="path842" />
  <path
     d="M 550,685 H 90 Q 77,685 68.5,676.5 60,668 60,655 V -55 Q 60,-68 68.5,-76.5 77,-85 90,-85 h 460 q 13,0 21.5,8.5 8.5,8.5 8.5,21.5 v 710 q 0,13 -8.5,21.5 Q 563,685 550,685 Z m 60,-30 V -55 Q 610,-80 592.5,-97.5 575,-115 550,-115 H 90 Q 65,-115 47.5,-97.5 30,-80 30,-55 v 710 q 0,25 17.5,42.5 Q 65,715 90,715 h 460 q 25,0 42.5,-17.5 Q 610,680 610,655 Z"
     style="stroke:none;stroke-opacity:1;fill:#999999;fill-opacity:1"
     id="path2" />
</svg>
